X: 22951
T: Las Perlitas
R: polka
M: 2/4
K: Gmajor
|:DG Bd|gg ge|ff fd|ee e2|DF Ac|ff fd|ee ec|dd d2|
DG Bd|gg g2|^gg g2|a4|e/e/^d/e/ fe|d/d/^c/d ed|B/d/B/d/ BA|1 G4:|2 G3 ~B||
K:D major
Ac eg|f/a/f/a/ f/a/f/a/|e/g/e/g/ e/g/e/g/|f/e/f/g/ a~B|
Ac eg|f/a/f/a/ f/a/f/a/|e/g/e/g/ e/g/f/e/|d/A/B/c/ d~B|
Ac eg|f/a/f/a/ f/a/f/a/|e/g/e/g/ e/g/e/g/|f/e/d/e/ a~B|
Ac eg|f/a/f/a/ f/a/f/a/|e/g/e/g/ e/g/f/e/|d4|
K:G Major
DG Bd|gg ge|ff fd|ee e2|DF Ac|ff fd|ee ec|dd d2|
DG Bd|gg g2|^gg g2|a4|e/e/^d/e/ fe|d/d/^c/d ed|B/d/B/d/ BA|G3 G,|
K:C Major
|:C2 D2|E3 C|E2 F2|G3 c|cB ~BA|B3 A|AG ^FA|G3 G,|
C2 D2|E3 G|GE F/E/F/G/|A4|A/A/^G/A/ BA|G/G/^F/G/ AG|E/G/E/G/ ED|1 C3 G,:|2 (3 C2 g2g2||
K:G Major
|:(3 g2 f2 e2|(3 B2 g2 g2|(3 g2 f2 e2|(3 c2 f2 f2|(3 f2 e2 d2|(3 c2 f2 f2|(3 f2 e2 d2|
(3 B2 g2 g2|(3 g2 f2 e2|(3 B2 g2 g2|gf/g/ ag|e4|e/e/^d/e/ fe|d/d/^c/d ed|B/d/B/d/ BA|1 (3 G2 g2 g2:|2 G3 G,||
K:C Major
C2 D2|E3 C|E2 F2|G3 c|cB ~BA|B3 A|AG ^FA|G3 G,|
C2 D2|E3 G|GE F/E/F/G/|A4|A/A/^G/A/ BA|G/G/^F/G/ AG|E/G/E/G/ ED|C4|
K: G Major
DG Bd|gg ge|ff fd|ee e2|DF Ac|ff fd|ee ec|dd d2|
DG Bd|gg g2|^gg g2|a4|e/e/^d/e/ fe|d/d/^c/d ed|B/d/B/d/ BA|G3 B~|
K: D Major
Ac eg|f/a/f/a/ f/a/f/a/|e/g/e/g/ e/g/e/g/|f/e/f/g/ a~B|
Ac eg|f/a/f/a/ f/a/f/a/|e/g/e/g/ e/g/f/e/|d/A/B/c/ d~B|
Ac eg|f/a/f/a/ f/a/f/a/|e/g/e/g/ e/g/e/g/|f/e/d/e/ a~B|
Ac eg|f/a/f/a/ f/a/f/a/|e/g/e/g/ e/g/f/e/|d4|
K: G Major
DG Bd|gg ge|ff fd|ee e2|DF Ac|ff fd|ee ec|dd d2|
DG Bd|gg g2|^gg g2|a4|e/e/^d/e/ fe|d/d/^c/d ed|B/d/B/d/ BA|G2 G2||

